X: 1
T: Les heures du vent (outro)
%***Missing time signature meta command in MIDI file
C:Anamnèse - Eric Forgeot
O:France
A:Champaigne
Z: Eric Forgeot - http://anamnese.online.fr
H:2007
M: 4/4
L: 1/ 8
Q:1/4=120
% Last note suggests Dorian mode tune
K:F % 1 flats
%%staves {(1) (2) (3) 4}
V:1
% Heure du vent
%%MIDI program 0
|: D,2 D,2 F,2 F,2 | E,G, A,2 D,2 D,2 | F,2 F,2 E,G, A,2 :| 
|: D,2 D,2 F,2 F,2 | E,G, A,2 D,2 D,2 | F,2 F,2 E,G, A,2 :| 
|: C,2 C,2 F,2 F,2 | E,F, D,2 C,2 C,2 | F,2 F,2 E,F, D,2 :| 
D,2 D,2 F,2 F,2 | E,G, A,2 D,2 D,2 | F,2 F,2 E,G, A,2 | 
D,2 D,2 F,2 F,2 | E,G, A,2 D,2 D,2 | F,2 F,2 E,G, A,2 | 
C,2 C,2 F,2 F,2 | E,F, D,2 C,2 C,2 | F,2 F,2 E,F, D,2 | 
|: C,2 C,2 F,2 F,2 | E,F, D,2 C,2 C,2 | F,2 F,2 E,F, D,2 :|]
V:2
%%MIDI program 0
|: D,A, D,G,/2A,/2 F,A,/2A,/2 CA,/2G,/2 | A,E, E,A, A,2 A,C | A,G, A,3/2A,/2 G,E, D,2 :| 
|: D,A, D,G,/2A,/2 F,A,/2A,/2 CA,/2G,/2 | A,E, E,A, A,2 A,C | A,G, A,3/2A,/2 G,E, D,2 :| 
|: G,A, F,4 D,2 | G,A, F,4 A,C | A,2 CA, G,F, A,2 :| 
D,A, D,G,/2A,/2 F,A,/2A,/2 CA,/2G,/2 | A,E, E,A, A,2 A,C | A,G, A,3/2A,/2 G,E, D,2 | 
D,A, D,G,/2A,/2 F,A,/2A,/2 CA,/2G,/2 | A,E, E,A, A,2 A,C | A,G, A,3/2A,/2 G,E, D,2 |
G,A, F,4 D,2 | G,A, F,4 A,C | A,2 CA, G,F, A,2 | 
|: G,A, F,4 D,2 | G,A, F,4 A,C | A,2 CA, G,F, A,2 :|]
V:3
%%MIDI program 0
|: D,4 A,4 | G,4 F,4 | C,4 G,2 F,2 :| 
|: D,4 A,4 | G,4 F,4 | C,4 G,2 F,2 :| 
|: E,F, D,4 A,2 | A,G, F,4 G,A, | A,2 F,2 A,2 A,2 :| 
D,4 A,4 | G,4 F,4 | C,4 G,2 F,2 | 
D,4 A,4 | G,4 F,4 | C,4 G,2 F,2 |
E,F, D,4 A,2 | A,G, F,4 G,A, | A,2 F,2 A,2 A,2 | 
|: E,F, D,4 A,2 | A,G, F,4 G,A, | A,2 F,2 A,2 A,2 :|]
V:4
%%MIDI program 0
|: x8 | x8 | x8 :| 
|: A,2 z2 C2 z2 | E2 z2 A,2 z2 | F,2 z2 E,2 z2 :| 
|: A,2 z2 A,2 z2 | E2 z2 G,2 z2 | F,2 z2 E,2 A,A, :|
  A,2 z2 C2 z2 | E2 z2 A,2 z2 | F,2 z2 E,2 z2 | 
  x8 | x8 | x8 | 
  x8 | x8 | x8 | 
|: A,2 z2 A,2 z2 | E2 z2 G,2 z2 | F,2 z2 E,2 A,A, :|]
